flaticon/travel/sand-bucket.svg

<svg xmlns="http://www.w3.org/2000/svg" width="32" height="32" viewBox="0 0 24 24">
    <path d="M 19.410156 14.859375 C 18.523438 13.976562 17.742188 13.292969 17.082031 12.828125 C 17.089844 12.78125 17.097656 12.734375 17.097656 12.683594 L 17.097656 11.640625 C 17.097656 11.089844 16.691406 10.632812 16.160156 10.546875 C 16.0625 9.199219 15.460938 8.898438 14.949219 8.898438 C 14.648438 8.898438 14.402344 8.988281 14.214844 9.164062 C 13.996094 8.988281 13.695312 8.898438 13.316406 8.898438 C 13.144531 8.898438 12.96875 8.9375 12.800781 9.019531 C 12.5 7.761719 11.566406 6.855469 10.460938 6.855469 C 10.035156 6.855469 9.632812 7 9.277344 7.246094 L 8.574219 3.957031 C 9.378906 3.351562 9.933594 2.375 10.035156 1.269531 C 10.070312 0.898438 9.929688 0.542969 9.648438 0.296875 C 9.367188 0.046875 9 -0.0546875 8.628906 0.0273438 L 4.324219 0.945312 C 3.957031 1.023438 3.660156 1.265625 3.503906 1.605469 C 3.351562 1.949219 3.367188 2.328125 3.546875 2.652344 C 4.050781 3.550781 4.863281 4.1875 5.761719 4.453125 L 6.667969 8.710938 C 6.441406 8.855469 6.234375 9.050781 6.066406 9.292969 C 5.800781 9.078125 5.484375 8.957031 5.15625 8.957031 C 4.269531 8.957031 3.554688 9.8125 3.527344 10.878906 C 3.339844 11.078125 3.222656 11.347656 3.222656 11.640625 L 3.222656 12.683594 C 3.222656 13.171875 3.539062 13.582031 3.972656 13.730469 L 5.238281 22.894531 C 5.324219 23.523438 5.871094 24 6.507812 24 L 13.597656 24 C 14.234375 24 14.78125 23.523438 14.867188 22.894531 L 14.933594 22.410156 C 15.328125 22.527344 15.726562 22.585938 16.117188 22.585938 C 17.375 22.585938 18.570312 22.011719 19.425781 21.128906 C 20.90625 19.59375 21.535156 16.976562 19.410156 14.859375 Z M 16.28125 11.640625 L 16.28125 12.683594 C 16.28125 12.847656 16.148438 12.980469 15.984375 12.980469 L 4.332031 12.980469 C 4.167969 12.980469 4.035156 12.847656 4.035156 12.683594 L 4.035156 11.640625 C 4.035156 11.480469 4.167969 11.347656 4.332031 11.347656 L 15.988281 11.347656 C 16.148438 11.347656 16.28125 11.480469 16.28125 11.640625 Z M 4.261719 2.253906 C 4.207031 2.15625 4.203125 2.042969 4.246094 1.941406 C 4.292969 1.839844 4.382812 1.769531 4.492188 1.746094 L 8.800781 0.824219 C 8.910156 0.800781 9.023438 0.832031 9.105469 0.90625 C 9.191406 0.980469 9.230469 1.085938 9.222656 1.195312 C 9.121094 2.28125 8.476562 3.203125 7.597656 3.585938 L 6.71875 3.773438 C 5.761719 3.78125 4.796875 3.207031 4.261719 2.253906 Z M 7.445312 8.4375 L 6.632812 4.628906 L 6.820312 4.585938 C 6.992188 4.582031 7.167969 4.5625 7.339844 4.527344 C 7.507812 4.488281 7.671875 4.4375 7.832031 4.375 L 8.59375 7.945312 C 8.574219 7.972656 8.558594 8 8.542969 8.027344 C 8.5 8.097656 8.457031 8.164062 8.417969 8.238281 C 8.390625 8.289062 8.367188 8.347656 8.339844 8.402344 C 8.316406 8.457031 8.285156 8.507812 8.265625 8.566406 C 8.054688 8.476562 7.832031 8.429688 7.601562 8.429688 C 7.550781 8.429688 7.5 8.433594 7.445312 8.4375 Z M 5.15625 9.773438 C 5.398438 9.773438 5.628906 9.933594 5.789062 10.21875 C 5.867188 10.355469 6.015625 10.4375 6.175781 10.425781 C 6.332031 10.414062 6.46875 10.3125 6.523438 10.164062 C 6.6875 9.738281 6.960938 9.433594 7.277344 9.3125 C 7.28125 9.308594 7.28125 9.3125 7.28125 9.308594 C 7.355469 9.28125 7.425781 9.265625 7.5 9.257812 C 7.515625 9.257812 7.53125 9.253906 7.546875 9.253906 C 7.699219 9.246094 7.847656 9.273438 7.988281 9.339844 C 8.003906 9.347656 8.019531 9.355469 8.035156 9.363281 C 8.105469 9.402344 8.171875 9.445312 8.238281 9.5 C 8.269531 9.527344 8.308594 9.546875 8.347656 9.566406 C 8.359375 9.570312 8.371094 9.574219 8.386719 9.578125 C 8.414062 9.585938 8.445312 9.589844 8.476562 9.59375 C 8.484375 9.59375 8.492188 9.597656 8.503906 9.597656 C 8.507812 9.597656 8.511719 9.59375 8.515625 9.59375 C 8.554688 9.59375 8.59375 9.589844 8.632812 9.574219 C 8.769531 9.53125 8.871094 9.414062 8.902344 9.273438 C 8.921875 9.171875 8.953125 9.070312 8.988281 8.972656 C 9.003906 8.925781 9.023438 8.878906 9.042969 8.835938 C 9.058594 8.792969 9.074219 8.75 9.09375 8.707031 C 9.125 8.648438 9.15625 8.589844 9.1875 8.53125 C 9.199219 8.515625 9.210938 8.496094 9.21875 8.476562 C 9.261719 8.414062 9.304688 8.347656 9.351562 8.289062 C 9.644531 7.90625 10.039062 7.671875 10.460938 7.671875 C 11.320312 7.671875 12.046875 8.625 12.085938 9.796875 C 12.089844 9.964844 12.199219 10.113281 12.359375 10.167969 C 12.515625 10.222656 12.695312 10.175781 12.804688 10.046875 C 12.980469 9.835938 13.167969 9.714844 13.316406 9.714844 C 13.78125 9.714844 13.785156 9.867188 13.796875 10.101562 C 13.804688 10.308594 13.964844 10.476562 14.171875 10.492188 C 14.375 10.507812 14.5625 10.371094 14.601562 10.167969 C 14.695312 9.714844 14.832031 9.714844 14.949219 9.714844 C 15.210938 9.714844 15.308594 10.148438 15.339844 10.53125 L 4.390625 10.53125 C 4.511719 10.09375 4.8125 9.773438 5.15625 9.773438 Z M 14.058594 22.78125 C 14.027344 23.011719 13.828125 23.183594 13.597656 23.183594 L 6.507812 23.183594 C 6.277344 23.183594 6.078125 23.011719 6.046875 22.78125 L 4.808594 13.796875 L 15.296875 13.796875 L 14.277344 21.207031 C 14.074219 21.074219 13.871094 20.921875 13.675781 20.738281 C 12.878906 19.988281 12.277344 19.171875 11.941406 18.664062 C 12.5625 18.414062 13 17.8125 13 17.105469 C 13 16.179688 12.246094 15.429688 11.320312 15.429688 C 10.398438 15.429688 9.644531 16.183594 9.644531 17.105469 C 9.644531 17.933594 10.246094 18.617188 11.035156 18.753906 C 11.300781 19.199219 12.027344 20.3125 13.117188 21.332031 C 13.449219 21.648438 13.800781 21.894531 14.15625 22.082031 Z M 10.460938 17.105469 C 10.460938 16.632812 10.847656 16.246094 11.324219 16.246094 C 11.796875 16.246094 12.183594 16.632812 12.183594 17.105469 C 12.183594 17.582031 11.796875 17.96875 11.324219 17.96875 C 10.847656 17.96875 10.460938 17.582031 10.460938 17.105469 Z M 18.835938 20.558594 C 17.914062 21.515625 16.472656 22.089844 15.046875 21.589844 L 16.125 13.78125 C 16.335938 13.753906 16.523438 13.671875 16.679688 13.542969 C 17.285156 13.984375 18.019531 14.628906 18.832031 15.441406 C 20.566406 17.164062 20.050781 19.304688 18.835938 20.558594 Z M 18.835938 20.558594"/>
</svg>

<svg xmlns="http://www.w3.org/2000/svg" width="32" height="32" viewBox="0 0 24 24">
    <path d="M19.41 14.86c-.887-.883-1.668-1.567-2.328-2.032a.862.862 0 0 0 .016-.144V11.64c0-.551-.407-1.008-.938-1.094-.098-1.348-.7-1.649-1.21-1.649-.302 0-.548.09-.735.266-.219-.176-.52-.266-.899-.266-.171 0-.347.04-.515.122-.301-1.258-1.235-2.165-2.34-2.165-.426 0-.828.145-1.184.391l-.703-3.289c.805-.605 1.36-1.582 1.461-2.687a1.137 1.137 0 0 0-.387-.973 1.142 1.142 0 0 0-1.02-.27L4.325.945c-.367.078-.664.32-.82.66-.152.344-.137.723.043 1.047.504.899 1.316 1.535 2.215 1.801l.906 4.258c-.227.144-.434.34-.602.582a1.447 1.447 0 0 0-.91-.336c-.886 0-1.601.855-1.629 1.922-.187.2-.304.469-.304.762v1.043c0 .488.316.898.75 1.046l1.265 9.165A1.287 1.287 0 0 0 6.508 24h7.09c.636 0 1.183-.477 1.27-1.105l.066-.485c.394.117.793.176 1.183.176 1.258 0 2.453-.574 3.309-1.457 1.48-1.535 2.11-4.152-.016-6.27zm-3.129-3.22v1.044a.297.297 0 0 1-.297.296H4.332a.297.297 0 0 1-.297-.296V11.64c0-.16.133-.293.297-.293h11.656c.16 0 .293.132.293.293zM4.261 2.255a.352.352 0 0 1-.015-.313.348.348 0 0 1 .246-.195L8.801.824a.346.346 0 0 1 .304.082c.086.074.125.18.118.29-.102 1.085-.746 2.007-1.625 2.39l-.88.187c-.956.008-1.921-.566-2.456-1.52zm3.184 6.184l-.812-3.81.187-.042a2.94 2.94 0 0 0 .52-.059c.168-.039.332-.09.492-.152l.762 3.57c-.02.028-.035.055-.051.082-.043.07-.086.137-.125.211-.027.051-.05.11-.078.164-.024.055-.055.106-.074.164a1.684 1.684 0 0 0-.664-.136c-.051 0-.102.004-.157.008zM5.156 9.773c.242 0 .473.16.633.446a.41.41 0 0 0 .387.207.403.403 0 0 0 .347-.262c.165-.426.438-.73.754-.851.004-.004.004 0 .004-.004a.887.887 0 0 1 .219-.051c.016 0 .031-.004.047-.004.152-.008.3.02.441.086l.047.023c.07.04.137.082.203.137.032.027.07.047.11.066l.039.012c.027.008.058.012.09.016.007 0 .015.004.027.004.004 0 .008-.004.012-.004a.405.405 0 0 0 .387-.32 2.03 2.03 0 0 1 .14-.438c.016-.043.031-.086.05-.129l.095-.176a.249.249 0 0 0 .03-.054c.044-.063.087-.13.134-.188.293-.383.687-.617 1.109-.617.86 0 1.586.953 1.625 2.125a.403.403 0 0 0 .273.371.41.41 0 0 0 .446-.121c.175-.211.363-.332.511-.332.465 0 .47.152.48.387a.406.406 0 0 0 .376.39.404.404 0 0 0 .43-.324c.093-.453.23-.453.347-.453.262 0 .36.433.39.816H4.392c.12-.437.421-.758.765-.758zm8.903 13.008a.467.467 0 0 1-.461.403h-7.09a.467.467 0 0 1-.461-.403l-1.238-8.984h10.488l-1.02 7.41a4.328 4.328 0 0 1-.601-.469 12.11 12.11 0 0 1-1.735-2.074A1.68 1.68 0 0 0 13 17.105a1.679 1.679 0 0 0-3.355 0c0 .829.601 1.512 1.39 1.649.266.445.992 1.558 2.082 2.578.332.316.684.563 1.04.75zm-3.598-5.676a.862.862 0 1 1 .863.863.864.864 0 0 1-.863-.863zm8.375 3.454c-.922.957-2.363 1.53-3.79 1.03l1.079-7.808c.21-.027.398-.11.555-.238.605.441 1.34 1.086 2.152 1.898 1.734 1.723 1.219 3.864.004 5.118zm0 0"/>
</svg>
